X:176
T:McFadden's Reel
T:Widow's Daughter
T:Andy McGann's
R:reel
H:Played with single or double parts
D:Paddy Glackin: Ceol ar an bhFidil le Paddy Glackin.
D:Martin Quinn and Angelina Carberry
Z:id:hn-reel-176
M:C|
K:Edor
EBed ~B3c | dB~B2 dBAF | EBed ~B3e | fded dBAF |
EB~B2 dB~B2 | EB~B2 BAFB | A2FB ABde | fded dBAg ||
fa~a2 fdde | fdad BdAg | fa~a2 bfaf | egfe dBAg |
fa~a2 fdde | fdad BdAg | faaf ~a3f | egfe dBAF ||
P:version 2
|: E2ed ~B3c | dB~B2 dBAF | E2ed Bcde | fdef dBAF |
EB~B2 dB~B2 | EdcA BAFB | A2FA ABde |1 fdef dBAF :|2 fdef defg ||
|: a3g fdde | f2af dBAe | fa~a2 bfaf | egfe defg |
adgd fdde | f2af dBAe | fa~a2 bfaf |1 egfe defg :|2 egfe dBAF ||

